X:33
T:Hora lui Ghiorghe
S:Ian McArdle
R:Other
Q:1/4=112
O:Moldova
M:2/4
K:C
"C"{B}c2{^d}e2 "tr"=f3c/B/|c>de>^f g>a~a2|\
"G"G2(3gfe "tr"d3c|"E7"~c>B ~B>A "A"A2a2 :|
|:{^g}a2A>A ~BAE2| {^g}a2A>A ~B>AE2|\
(3ABc (3ABc "tr"d3c|c>B (3E^F^G A2:|
